mc/waste-theme/assets/themes/natuurpunt/walk_wheelchair.svg

<svg xmlns="http://www.w3.org/2000/svg" viewBox="-8 8 40 1">
    <defs>
        <style>.cls-1{fill:#fff;}</style>
    </defs>
    <g id="Layer_2" data-name="Layer 2">
        <g id="Layer_1-2" data-name="Layer 1">
            <path class="cls-1"
                  d="M11.49,8h0l0-.76H10.9V7.9L8.63,7.42,6.92,4.5a.65.65,0,0,0-.27-.25,2.46,2.46,0,0,0-.89-.53C4.43,3.27,3.84,5.29,3.84,5.29A26.9,26.9,0,0,0,3.06,9.6L3,9.94A.36.36,0,0,0,3,10l-.49,2.84L.24,16c-.2.29-.48.86.14,1.16a1,1,0,0,0,.68.09,2.5,2.5,0,0,0,.81-.7L3.92,14,4,13.92l.14-.25a1.56,1.56,0,0,0,.22-.59l.23-1.39,2.2,1.52L8,16.91a.92.92,0,0,0,1.14.62.72.72,0,0,0,.2-.09.9.9,0,0,0,.41-1.05L8.39,12.25a.91.91,0,0,0-.56-.59L6.09,10.52l.19-.7.53-3.1.91,1.54a.57.57,0,0,0,.4.29l2.78.59v8.44h.17l.34-8.35a.79.79,0,0,0,.26-.08.66.66,0,0,0,.29-.4A.62.62,0,0,0,11.49,8Z"/>
            <path class="cls-1" d="M7,3.18a1.71,1.71,0,1,0-2.33-.61A1.7,1.7,0,0,0,7,3.18Z"/>
            <path class="cls-1" d="M2.17,10a27.71,27.71,0,0,1,1.39-6s-.15-.63-1.25-.21S.1,7.77.45,9,2.17,10,2.17,10Z"/>
            <path class="cls-1"
                  d="M17.57,4.27A1.41,1.41,0,1,1,19.07,3,1.41,1.41,0,0,1,17.57,4.27Zm4.49,7.56-4.55-.3a1.42,1.42,0,0,1-1.35-1.37l0-4.28a1.38,1.38,0,0,1,1.38-1.35,1.37,1.37,0,0,1,1.34,1.38V7.38l2.63.17a.64.64,0,0,1,.59.69.65.65,0,0,1-.68.59L18.9,8.66v.8l3.5.23a.84.84,0,0,1,.66.45l2.26,4.47a.82.82,0,0,1-1.46.74Zm0,1.27.7,1.37a5.29,5.29,0,1,1-7.14-7V8.77a4.14,4.14,0,0,0-1.8,3.17A4.18,4.18,0,0,0,22,13.1Z"/>
            <polyline class="cls-1" points="20.99 9.14 20.99 17.59 21.15 17.59 21.57 7.26 20.99 7.26 20.99 7.9"/>
            <path class="cls-1"
                  d="M15.57,7.12a12.06,12.06,0,0,1,.11-1.77,2,2,0,0,1,.47-.75,1,1,0,0,0-.9-.09,1.65,1.65,0,0,0-1.11,1.77A1.09,1.09,0,0,0,15.57,7.12Z"/>
        </g>
    </g>
</svg>

<?xml version="1.0" encoding="UTF-8" standalone="no"?>
<svg
   viewBox="-8 8 25.386618 17.599442"
   version="1.1"
   id="svg985"
   sodipodi:docname="walk_wheelchair.svg"
   width="25.386618"
   height="17.599442"
   inkscape:version="1.1.1 (1:1.1+202109281949+c3084ef5ed)"
   xmlns:inkscape="http://www.inkscape.org/namespaces/inkscape"
   xmlns:sodipodi="http://sodipodi.sourceforge.net/DTD/sodipodi-0.dtd"
   xmlns="http://www.w3.org/2000/svg"
   xmlns:svg="http://www.w3.org/2000/svg">
  <sodipodi:namedview
     id="namedview987"
     pagecolor="#505050"
     bordercolor="#eeeeee"
     borderopacity="1"
     inkscape:pageshadow="0"
     inkscape:pageopacity="0"
     inkscape:pagecheckerboard="0"
     showgrid="false"
     inkscape:zoom="40.35"
     inkscape:cx="2.1561338"
     inkscape:cy="8.5130112"
     inkscape:current-layer="svg985" />
  <defs
     id="defs969">
    <style
       id="style967">.cls-1{fill:#fff;}</style>
  </defs>
  <g
     id="Layer_2"
     data-name="Layer 2"
     transform="translate(-8.0003301,8.0094408)">
    <g
       id="Layer_1-2"
       data-name="Layer 1">
      <path
         class="cls-1"
         d="M 11.49,8 V 8 7.24 H 10.9 V 7.9 L 8.63,7.42 6.92,4.5 A 0.65,0.65 0 0 0 6.65,4.25 2.46,2.46 0 0 0 5.76,3.72 C 4.43,3.27 3.84,5.29 3.84,5.29 A 26.9,26.9 0 0 0 3.06,9.6 L 3,9.94 A 0.36,0.36 0 0 0 3,10 L 2.51,12.84 0.24,16 c -0.2,0.29 -0.48,0.86 0.14,1.16 a 1,1 0 0 0 0.68,0.09 2.5,2.5 0 0 0 0.81,-0.7 L 3.92,14 4,13.92 4.14,13.67 a 1.56,1.56 0 0 0 0.22,-0.59 l 0.23,-1.39 2.2,1.52 1.21,3.7 a 0.92,0.92 0 0 0 1.14,0.62 0.72,0.72 0 0 0 0.2,-0.09 0.9,0.9 0 0 0 0.41,-1.05 L 8.39,12.25 A 0.91,0.91 0 0 0 7.83,11.66 L 6.09,10.52 6.28,9.82 6.81,6.72 7.72,8.26 a 0.57,0.57 0 0 0 0.4,0.29 l 2.78,0.59 v 8.44 h 0.17 L 11.41,9.23 A 0.79,0.79 0 0 0 11.67,9.15 0.66,0.66 0 0 0 11.96,8.75 0.62,0.62 0 0 0 11.49,8 Z"
         id="path971" />
      <path
         class="cls-1"
         d="M 7,3.18 A 1.71,1.71 0 1 0 4.67,2.57 1.7,1.7 0 0 0 7,3.18 Z"
         id="path973" />
      <path
         class="cls-1"
         d="M 2.17,10 A 27.71,27.71 0 0 1 3.56,4 C 3.56,4 3.41,3.37 2.31,3.79 1.21,4.21 0.1,7.77 0.45,9 c 0.35,1.23 1.72,1 1.72,1 z"
         id="path975" />
      <path
         class="cls-1"
         d="M 17.57,4.27 A 1.41,1.41 0 1 1 19.07,3 1.41,1.41 0 0 1 17.57,4.27 Z m 4.49,7.56 -4.55,-0.3 A 1.42,1.42 0 0 1 16.16,10.16 V 5.88 a 1.38,1.38 0 0 1 1.38,-1.35 1.37,1.37 0 0 1 1.34,1.38 v 1.47 l 2.63,0.17 A 0.64,0.64 0 0 1 22.1,8.24 0.65,0.65 0 0 1 21.42,8.83 L 18.9,8.66 v 0.8 l 3.5,0.23 a 0.84,0.84 0 0 1 0.66,0.45 l 2.26,4.47 a 0.82,0.82 0 0 1 -1.46,0.74 z m 0,1.27 0.7,1.37 a 5.29,5.29 0 1 1 -7.14,-7 v 1.3 a 4.14,4.14 0 0 0 -1.8,3.17 4.18,4.18 0 0 0 8.18,1.16 z"
         id="path977" />
      <polyline
         class="cls-1"
         points="20.99 9.14 20.99 17.59 21.15 17.59 21.57 7.26 20.99 7.26 20.99 7.9"
         id="polyline979" />
      <path
         class="cls-1"
         d="M 15.57,7.12 A 12.06,12.06 0 0 1 15.68,5.35 2,2 0 0 1 16.15,4.6 1,1 0 0 0 15.25,4.51 1.65,1.65 0 0 0 14.14,6.28 1.09,1.09 0 0 0 15.57,7.12 Z"
         id="path981" />
    </g>
  </g>
</svg>
